; generated by PrusaSlicer 2.1.0-beta3+linux64 on 2020-01-06 at 15:04:52

; 

; external perimeters extrusion width = 0.45mm
; perimeters extrusion width = 0.45mm
; infill extrusion width = 0.45mm
; solid infill extrusion width = 0.45mm
; top infill extrusion width = 0.40mm
; first layer extrusion width = 0.42mm

M73 P0 R55
M73 Q0 S56
M201 X1000 Y1000 Z1000 E5000 ; sets maximum accelerations, mm/sec^2
M203 X200 Y200 Z12 E120 ; sets maximum feedrates, mm/sec
M204 P1250 R1250 T1250 ; sets acceleration (P, T) and retract acceleration (R), mm/sec^2
M205 X8.00 Y8.00 Z0.40 E1.50 ; sets the jerk limits, mm/sec
M205 S0 T0 ; sets the minimum extruding and travel feed rate, mm/sec
M107
M862.3 P "MK3" ; printer model check
M862.1 P0.4 ; nozzle diameter check
M115 U3.7.2 ; tell printer latest fw version
G90 ; use absolute coordinates
M83 ; extruder relative mode
M104 S255 ; set extruder temp
M140 S85 ; set bed temp
M190 S85 ; wait for bed temp
M109 S255 ; wait for extruder temp
G28 W ; home all without mesh bed level
G80 ; mesh bed leveling
G1 Y-3.0 F1000.0 ; go outside print area
G92 E0.0
G1 X60.0 E9.0 F1000.0 ; intro line
M73 Q0 S56
M73 P0 R55
G1 X100.0 E12.5 F1000.0 ; intro line
G92 E0.0
M221 S95
G21 ; set units to millimeters
G90 ; use absolute coordinates
M83 ; use relative distances for extrusion
M900 K45 ; Filament gcode
;BEFORE_LAYER_CHANGE
G92 E0.0
;0.2


G1 E-1.40000 F2100.00000
G1 Z0.200 F10800.000
;AFTER_LAYER_CHANGE
;0.2
G1 Z0.400
G1 X96.778 Y75.836
G1 Z0.200
G1 E1.40000 F2100.00000
M204 S1000
G1 F900
G1 X97.537 Y75.133 E0.03245
G1 X98.428 Y74.595 E0.03263
G1 X99.404 Y74.251 E0.03245
G1 X100.435 Y74.111 E0.03263
G1 X149.406 Y74.108 E1.53543
G1 X150.359 Y74.200 E0.03002
G1 X151.278 Y74.467 E0.03002
G1 X152.126 Y74.900 E0.02984
G1 X152.882 Y75.486 E0.03002
G1 X153.516 Y76.204 E0.03002
G1 X154.004 Y77.027 E0.03002
G1 X154.328 Y77.922 E0.02984
G1 X154.480 Y78.867 E0.03002
G1 X154.489 Y129.716 E1.59433
G1 X154.391 Y130.601 E0.02793
G1 X154.142 Y131.451 E0.02775
G1 X153.747 Y132.249 E0.02793
G1 X153.222 Y132.962 E0.02775
G1 X152.436 Y133.685 E0.03349
G1 X151.516 Y134.229 E0.03349
G1 X150.503 Y134.569 E0.03349
G1 X149.442 Y134.689 E0.03349
G1 X100.475 Y134.688 E1.53532
G1 X99.596 Y134.590 E0.02775
G1 X98.746 Y134.340 E0.02775
G1 X97.953 Y133.947 E0.02775
G1 X97.240 Y133.423 E0.02775
G1 X96.512 Y132.633 E0.03367
G1 X95.969 Y131.713 E0.03349
G1 X95.630 Y130.700 E0.03349
G1 X95.510 Y129.639 E0.03349
G1 X95.511 Y79.076 E1.58535
G1 X95.609 Y78.197 E0.02775
G1 X95.860 Y77.342 E0.02793
G1 X96.253 Y76.549 E0.02775
G1 X96.743 Y75.885 E0.02587
G1 F8640
G1 X97.537 Y75.133 E-0.25260
G1 X98.428 Y74.595 E-0.24026
G1 X99.404 Y74.251 E-0.23898
G1 X100.435 Y74.111 E-0.24026
G1 X101.985 Y74.111 E-0.35789
G1 E-0.07000 F2100.00000
G1 Z0.400 F10800.000
G1 X98.407 Y74.985
G1 Z0.200
G1 E1.40000 F2100.00000
G1 F900
G1 X100.079 Y74.486 E0.05471
G1 X149.886 Y74.489 E1.56168
G1 X150.835 Y74.673 E0.03029
G1 X151.743 Y75.064 E0.03101
G1 X152.962 Y76.088 E0.04990
G1 X153.753 Y77.305 E0.04551
G1 X154.113 Y78.688 E0.04481
G1 X154.113 Y99.909 E0.66537
G1 X153.815 Y101.132 E0.03947
G1 X153.406 Y101.948 E0.02863
G1 X152.477 Y102.992 E0.04382
G1 X151.593 Y103.613 E0.03387
G1 X149.921 Y104.113 E0.05470
G1 X100.090 Y104.113 E1.56242
G1 X98.867 Y103.814 E0.03947
G1 X98.051 Y103.405 E0.02863
G1 X97.007 Y102.476 E0.04382
G1 X96.386 Y101.592 E0.03387
G1 X95.887 Y99.920 E0.05470
G1 X95.887 Y78.689 E0.66568
G1 X96.185 Y77.466 E0.03947
G1 X96.594 Y76.650 E0.02863
G1 X97.523 Y75.606 E0.04382
G1 X98.358 Y75.019 E0.03199
G1 X98.573 Y75.329 F10800.000
G1 F900
G1 X100.106 Y74.863 E0.05024
G1 X149.868 Y74.866 E1.56024
G1 X150.741 Y75.039 E0.02791
G1 X151.566 Y75.398 E0.02823
G1 X152.697 Y76.357 E0.04647
G1 X153.396 Y77.431 E0.04018
G1 X153.736 Y78.712 E0.04157
G1 X153.736 Y99.885 E0.66386
G1 X153.455 Y101.019 E0.03664
G1 X153.082 Y101.755 E0.02586
G1 X152.212 Y102.723 E0.04082
G1 X151.403 Y103.286 E0.03090
G1 X149.894 Y103.735 E0.04936
G1 X100.114 Y103.735 E1.56083
G1 X98.980 Y103.454 E0.03664
G1 X98.244 Y103.081 E0.02586
G1 X97.276 Y102.211 E0.04082
G1 X96.713 Y101.402 E0.03090
G1 X96.264 Y99.893 E0.04936
G1 X96.264 Y78.713 E0.66410
G1 X96.545 Y77.579 E0.03664
G1 X96.918 Y76.843 E0.02586
G1 X97.788 Y75.875 E0.04082
G1 X98.524 Y75.363 E0.02810
G1 X98.737 Y75.673 F10800.000
G1 F900
G1 X98.786 Y75.639 E0.00186
G1 X100.133 Y75.240 E0.04406
G1 X149.848 Y75.243 E1.55879
G1 X150.646 Y75.404 E0.02550
G1 X151.388 Y75.732 E0.02545
G1 X152.430 Y76.625 E0.04302
G1 X153.063 Y77.609 E0.03669
G1 X153.359 Y78.737 E0.03655
G1 X153.359 Y99.861 E0.66235
G1 X153.095 Y100.905 E0.03376
G1 X152.758 Y101.560 E0.02308
G1 X151.948 Y102.453 E0.03782
G1 X151.214 Y102.959 E0.02793
G1 X149.867 Y103.358 E0.04406
G1 X100.138 Y103.358 E1.55923
G1 X99.094 Y103.094 E0.03376
G1 X98.439 Y102.757 E0.02308
G1 X97.546 Y101.947 E0.03782
G1 X97.040 Y101.213 E0.02793
G1 X96.641 Y99.866 E0.04406
G1 X96.641 Y78.737 E0.66250
G1 X96.905 Y77.693 E0.03376
G1 X97.242 Y77.038 E0.02308
G1 X98.052 Y76.145 E0.03782
G1 X98.688 Y75.707 E0.02420
G1 X98.973 Y75.968 F10800.000
G1 F900
G1 X100.160 Y75.617 E0.03881
G1 X149.829 Y75.620 E1.55732
G1 X150.548 Y75.769 E0.02304
G1 X151.208 Y76.064 E0.02266
G1 X152.162 Y76.892 E0.03960
G1 X152.706 Y77.736 E0.03149
G1 X152.982 Y78.762 E0.03331
G1 X152.982 Y99.837 E0.66079
G1 X152.735 Y100.788 E0.03082
G1 X152.436 Y101.362 E0.02030
G1 X151.685 Y102.182 E0.03484
G1 X151.027 Y102.630 E0.02498
G1 X149.840 Y102.981 E0.03880
G1 X100.162 Y102.981 E1.55761
M73 Q1 S55
M73 P1 R54
G1 X99.211 Y102.735 E0.03082
G1 X98.637 Y102.435 E0.02030
G1 X97.817 Y101.684 E0.03484
G1 X97.369 Y101.026 E0.02498
G1 X97.018 Y99.839 E0.03880
G1 X97.018 Y78.761 E0.66088
G1 X97.265 Y77.810 E0.03082
G1 X97.564 Y77.236 E0.02030
G1 X98.315 Y76.416 E0.03484
G1 X98.924 Y76.002 E0.02310
G1 X99.134 Y76.314 F10800.000
G1 F900
G1 X100.187 Y75.994 E0.03452
G1 X149.810 Y75.998 E1.55588
G1 X150.413 Y76.122 E0.01933
G1 X151.028 Y76.396 E0.02110
G1 X151.892 Y77.156 E0.03609
G1 X152.372 Y77.913 E0.02809
G1 X152.605 Y78.786 E0.02835
G1 X152.605 Y99.812 E0.65924
G1 X152.377 Y100.670 E0.02783
G1 X152.115 Y101.163 E0.01752
G1 X151.424 Y101.909 E0.03187
G1 X150.841 Y102.301 E0.02204
G1 X149.813 Y102.604 E0.03360
G1 X100.187 Y102.604 E1.55598
G1 X99.329 Y102.376 E0.02783
G1 X98.836 Y102.114 E0.01752
G1 X98.090 Y101.423 E0.03187
G1 X97.698 Y100.840 E0.02204
G1 X97.395 Y99.812 E0.03360
G1 X97.395 Y78.786 E0.65924
G1 X97.623 Y77.929 E0.02783
G1 X97.885 Y77.435 E0.01752
G1 X98.576 Y76.689 E0.03187
G1 X99.084 Y76.348 E0.01920
G1 X99.343 Y76.627 F10800.000
G1 F900
G1 X100.214 Y76.371 E0.02847
G1 X149.789 Y76.375 E1.55439
G1 X150.314 Y76.486 E0.01681
G1 X150.845 Y76.727 E0.01829
G1 X151.622 Y77.420 E0.03263
G1 X152.016 Y78.040 E0.02306
G1 X152.228 Y78.812 E0.02510
G1 X152.228 Y99.786 E0.65761
G1 X152.020 Y100.548 E0.02477
G1 X151.796 Y100.961 E0.01474
G1 X151.165 Y101.634 E0.02892
G1 X150.657 Y101.971 E0.01911
G1 X149.786 Y102.227 E0.02846
G1 X100.213 Y102.227 E1.55432
G1 X99.451 Y102.019 E0.02477
G1 X99.038 Y101.795 E0.01474
G1 X98.365 Y101.164 E0.02892
G1 X98.028 Y100.656 E0.01911
G1 X97.772 Y99.785 E0.02846
G1 X97.772 Y78.812 E0.65759
G1 X97.980 Y78.050 E0.02477
G1 X98.204 Y77.637 E0.01474
G1 X98.835 Y76.964 E0.02892
G1 X99.293 Y76.660 E0.01723
G1 X99.498 Y76.976 F10800.000
G1 F900
G1 X100.241 Y76.748 E0.02436
G1 X149.768 Y76.752 E1.55288
G1 X150.211 Y76.849 E0.01423
G1 X150.659 Y77.057 E0.01548
G1 X151.350 Y77.682 E0.02920
G1 X151.662 Y78.170 E0.01818
G1 X151.851 Y78.839 E0.02179
G1 X151.851 Y99.759 E0.65593
G1 X151.663 Y100.423 E0.02162
G1 X151.478 Y100.756 E0.01196
G1 X150.908 Y101.358 E0.02600
G1 X150.475 Y101.640 E0.01619
G1 X149.759 Y101.850 E0.02340
G1 X100.240 Y101.850 E1.55263
G1 X99.576 Y101.662 E0.02162
G1 X99.243 Y101.477 E0.01196
G1 X98.641 Y100.907 E0.02600
G1 X98.360 Y100.474 E0.01619
G1 X98.149 Y99.758 E0.02340
G1 X98.149 Y78.839 E0.65590
G1 X98.337 Y78.175 E0.02162
G1 X98.522 Y77.842 E0.01196
G1 X99.092 Y77.240 E0.02600
G1 X99.448 Y77.009 E0.01332
G1 X100.268 Y77.125 F10800.000
G1 F900
G1 X149.746 Y77.129 E1.55133
G1 X150.105 Y77.212 E0.01157
G1 X150.471 Y77.385 E0.01268
G1 X151.076 Y77.942 E0.02580
G1 X151.308 Y78.304 E0.01347
G1 X151.474 Y78.867 E0.01841
G1 X151.474 Y99.731 E0.65417
G1 X151.309 Y100.293 E0.01838
G1 X151.163 Y100.548 E0.00919
G1 X150.653 Y101.079 E0.02311
G1 X150.295 Y101.307 E0.01328
G1 X149.732 Y101.473 E0.01842
G1 X100.268 Y101.473 E1.55090
G1 X99.706 Y101.308 E0.01838
G1 X99.451 Y101.162 E0.00919
G1 X98.920 Y100.652 E0.02311
G1 X98.692 Y100.294 E0.01328
G1 X98.526 Y99.731 E0.01842
G1 X98.526 Y78.867 E0.65417
G1 X98.691 Y78.305 E0.01838
G1 X98.837 Y78.050 E0.00919
G1 X99.347 Y77.519 E0.02311
G1 X99.705 Y77.291 E0.01328
G1 X100.211 Y77.142 E0.01654
G1 X100.298 Y77.502 F10800.000
G1 F900
G1 X149.724 Y77.506 E1.54973
G1 X149.962 Y77.561 E0.00767
G1 X150.282 Y77.712 E0.01109
G1 X150.801 Y78.200 E0.02233
G1 X150.956 Y78.441 E0.00898
G1 X151.097 Y78.897 E0.01495
G1 X151.097 Y99.701 E0.65232
G1 X150.956 Y100.159 E0.01500
G1 X150.851 Y100.335 E0.00643
G1 X150.398 Y100.801 E0.02038
G1 X150.158 Y100.955 E0.00894
G1 X149.702 Y101.096 E0.01495
G1 X100.298 Y101.096 E1.54905
G1 X99.841 Y100.955 E0.01500
G1 X99.664 Y100.851 E0.00643
G1 X99.198 Y100.397 E0.02038
G1 X99.044 Y100.157 E0.00894
G1 X98.903 Y99.701 E0.01495
G1 X98.903 Y78.897 E0.65232
G1 X99.044 Y78.440 E0.01500
G1 X99.149 Y78.263 E0.00643
G1 X99.602 Y77.797 E0.02038
G1 X99.842 Y77.643 E0.00894
G1 X100.240 Y77.520 E0.01307
G1 X99.985 Y77.992 F10800.000
G1 F900
G1 X100.329 Y77.879 E0.01136
G1 X149.702 Y77.883 E1.54804
G1 X149.819 Y77.910 E0.00377
G1 X150.092 Y78.040 E0.00947
G1 X150.523 Y78.456 E0.01880
G1 X150.607 Y78.584 E0.00479
G1 X150.720 Y78.928 E0.01136
G1 X150.720 Y99.670 E0.65033
G1 X150.606 Y100.016 E0.01144
G1 X150.544 Y100.117 E0.00371
G1 X150.144 Y100.522 E0.01785
G1 X150.015 Y100.606 E0.00482
G1 X149.671 Y100.719 E0.01136
G1 X100.329 Y100.719 E1.54706
M73 Q3 S54
M73 P3 R53
G1 X99.983 Y100.605 E0.01144
G1 X99.882 Y100.543 E0.00371
G1 X99.477 Y100.143 E0.01785
G1 X99.393 Y100.014 E0.00482
G1 X99.280 Y99.670 E0.01136
G1 X99.280 Y78.928 E0.65033
G1 X99.394 Y78.582 E0.01144
G1 X99.456 Y78.481 E0.00371
G1 X99.856 Y78.076 E0.01785
G1 X99.935 Y78.025 E0.00294
G1 X100.137 Y78.338 F10800.000
G1 F900
G1 X100.364 Y78.256 E0.00757
G1 X149.682 Y78.263 E1.54631
G1 X149.900 Y78.366 E0.00757
G1 X150.243 Y78.709 E0.01522
G1 X150.343 Y78.963 E0.00856
G1 X150.343 Y99.635 E0.64813
G1 X150.261 Y99.862 E0.00757
G1 X149.890 Y100.242 E0.01666
G1 X149.636 Y100.342 E0.00856
G1 X100.364 Y100.342 E1.54486
G1 X100.137 Y100.260 E0.00757
G1 X99.757 Y99.889 E0.01666
G1 X99.657 Y99.635 E0.00856
G1 X99.657 Y78.963 E0.64813
G1 X99.757 Y78.709 E0.00856
G1 X100.091 Y78.375 E0.01480
G1 X100.337 Y78.662 F10800.000
G1 F900
G1 X100.406 Y78.633 E0.00235
G1 X149.594 Y78.633 E1.54224
G1 X149.663 Y78.662 E0.00235
G1 X149.937 Y78.936 E0.01215
G1 X149.966 Y79.005 E0.00235
G1 X149.966 Y99.593 E0.64550
G1 X149.937 Y99.662 E0.00235
G1 X149.663 Y99.936 E0.01215
G1 X149.594 Y99.965 E0.00235
G1 X100.406 Y99.965 E1.54224
G1 X100.337 Y99.936 E0.00235
G1 X100.063 Y99.662 E0.01215
G1 X100.034 Y99.593 E0.00235
G1 X100.034 Y79.005 E0.64550
G1 X100.063 Y78.936 E0.00235
G1 X100.295 Y78.705 E0.01027
G1 X100.522 Y79.011 F10800.000
G1 F900
G1 X149.478 Y79.011 E1.53499
G1 X149.589 Y79.121 E0.00490
G1 X149.589 Y99.477 E0.63825
G1 X149.478 Y99.588 E0.00490
G1 X100.522 Y99.588 E1.53499
G1 X100.411 Y99.477 E0.00490
G1 X100.411 Y79.121 E0.63825
G1 X100.479 Y79.053 E0.00302
G1 F8640
G1 X106.239 Y79.048 E-1.33000
G1 E-0.07000 F2100.00000
G1 Z0.400 F10800.000
G1 X98.406 Y105.185
G1 Z0.200
G1 E1.40000 F2100.00000
G1 F900
G1 X100.079 Y104.686 E0.05472
G1 X149.886 Y104.689 E1.56169
G1 X150.835 Y104.873 E0.03029
G1 X151.744 Y105.264 E0.03104
G1 X153.005 Y106.328 E0.05173
G1 X153.759 Y107.520 E0.04423
G1 X154.113 Y108.942 E0.04596
G1 X154.113 Y130.109 E0.66365
G1 X153.815 Y131.332 E0.03947
G1 X153.406 Y132.148 E0.02863
G1 X152.477 Y133.192 E0.04382
G1 X151.593 Y133.813 E0.03387
G1 X149.921 Y134.313 E0.05470
G1 X100.152 Y134.312 E1.56049
G1 X99.061 Y134.090 E0.03492
G1 X98.041 Y133.595 E0.03554
G1 X96.997 Y132.666 E0.04383
G1 X96.384 Y131.788 E0.03358
G1 X95.887 Y130.120 E0.05456
G1 X95.887 Y108.890 E0.66567
G1 X96.185 Y107.667 E0.03946
G1 X96.593 Y106.850 E0.02862
G1 X97.522 Y105.806 E0.04381
G1 X98.357 Y105.220 E0.03200
G1 X98.573 Y105.529 F10800.000
G1 F900
G1 X100.106 Y105.063 E0.05025
G1 X149.868 Y105.066 E1.56024
G1 X150.741 Y105.239 E0.02791
G1 X151.567 Y105.598 E0.02826
G1 X152.737 Y106.596 E0.04821
G1 X153.423 Y107.694 E0.04059
G1 X153.736 Y108.965 E0.04105
G1 X153.736 Y130.085 E0.66221
G1 X153.455 Y131.219 E0.03664
G1 X153.082 Y131.955 E0.02586
G1 X152.212 Y132.923 E0.04082
G1 X151.403 Y133.486 E0.03090
G1 X149.894 Y133.935 E0.04936
G1 X100.172 Y133.935 E1.55902
G1 X99.161 Y133.726 E0.03235
G1 X98.232 Y133.269 E0.03248
G1 X97.266 Y132.401 E0.04071
G1 X96.711 Y131.598 E0.03059
G1 X96.264 Y130.093 E0.04923
G1 X96.264 Y108.913 E0.66409
G1 X96.545 Y107.779 E0.03663
G1 X96.918 Y107.044 E0.02585
G1 X97.788 Y106.075 E0.04081
G1 X98.523 Y105.563 E0.02810
G1 X98.737 Y105.873 F10800.000
G1 F900
G1 X98.786 Y105.840 E0.00185
G1 X100.133 Y105.440 E0.04407
G1 X149.848 Y105.443 E1.55879
G1 X150.645 Y105.604 E0.02550
G1 X151.389 Y105.932 E0.02547
G1 X152.469 Y106.862 E0.04468
G1 X153.086 Y107.865 E0.03695
G1 X153.359 Y108.987 E0.03621
G1 X153.359 Y130.061 E0.66076
G1 X153.095 Y131.105 E0.03376
G1 X152.758 Y131.760 E0.02308
G1 X151.948 Y132.653 E0.03782
G1 X151.214 Y133.159 E0.02793
G1 X149.867 Y133.558 E0.04406
G1 X100.192 Y133.558 E1.55754
M73 Q5 S53
M73 P5 R52
G1 X99.263 Y133.362 E0.02974
G1 X98.424 Y132.943 E0.02941
G1 X97.537 Y132.137 E0.03760
G1 X97.039 Y131.410 E0.02763
G1 X96.641 Y130.066 E0.04395
G1 X96.641 Y108.937 E0.66249
G1 X96.905 Y107.893 E0.03375
G1 X97.242 Y107.239 E0.02308
G1 X98.052 Y106.345 E0.03782
G1 X98.687 Y105.907 E0.02420
G1 X98.973 Y106.168 F10800.000
G1 F900
G1 X100.160 Y105.817 E0.03881
G1 X149.829 Y105.820 E1.55733
G1 X150.548 Y105.969 E0.02304
G1 X151.208 Y106.264 E0.02267
G1 X152.198 Y107.126 E0.04114
G1 X152.748 Y108.035 E0.03331
G1 X152.982 Y109.009 E0.03143
G1 X152.982 Y130.037 E0.65930
G1 X152.735 Y130.988 E0.03082
G1 X152.436 Y131.562 E0.02030
G1 X151.685 Y132.382 E0.03484
G1 X151.027 Y132.830 E0.02498
G1 X149.840 Y133.181 E0.03880
G1 X100.211 Y133.181 E1.55609
G1 X99.410 Y133.014 E0.02565
G1 X98.617 Y132.618 E0.02780
G1 X97.809 Y131.875 E0.03442
G1 X97.368 Y131.223 E0.02468
G1 X97.018 Y130.039 E0.03872
G1 X97.018 Y108.961 E0.66087
G1 X97.264 Y108.010 E0.03082
G1 X97.564 Y107.436 E0.02030
G1 X98.314 Y106.617 E0.03484
G1 X98.923 Y106.202 E0.02310
G1 X99.133 Y106.514 F10800.000
G1 F900
G1 X100.187 Y106.194 E0.03453
G1 X149.810 Y106.197 E1.55588
G1 X150.413 Y106.322 E0.01932
G1 X151.028 Y106.596 E0.02111
G1 X151.926 Y107.388 E0.03753
G1 X152.409 Y108.202 E0.02967
G1 X152.605 Y109.031 E0.02673
G1 X152.605 Y130.012 E0.65784
G1 X152.377 Y130.870 E0.02783
G1 X152.115 Y131.363 E0.01752
G1 X151.424 Y132.109 E0.03187
G1 X150.841 Y132.501 E0.02204
G1 X149.813 Y132.804 E0.03360
G1 X100.231 Y132.804 E1.55461
G1 X99.514 Y132.651 E0.02300
G1 X98.812 Y132.295 E0.02467
G1 X98.083 Y131.615 E0.03126
G1 X97.697 Y131.038 E0.02176
G1 X97.395 Y130.012 E0.03354
G1 X97.395 Y108.986 E0.65924
G1 X97.623 Y108.129 E0.02783
G1 X97.885 Y107.635 E0.01752
G1 X98.575 Y106.889 E0.03187
G1 X99.084 Y106.548 E0.01921
G1 X99.343 Y106.827 F10800.000
G1 F900
G1 X100.214 Y106.571 E0.02847
G1 X149.789 Y106.575 E1.55440
G1 X150.314 Y106.686 E0.01681
G1 X150.845 Y106.927 E0.01829
G1 X151.651 Y107.648 E0.03391
G1 X152.068 Y108.366 E0.02602
G1 X152.228 Y109.052 E0.02211
G1 X152.228 Y129.986 E0.65636
G1 X152.020 Y130.748 E0.02477
G1 X151.796 Y131.161 E0.01474
G1 X151.165 Y131.834 E0.02892
G1 X150.657 Y132.171 E0.01911
G1 X149.786 Y132.427 E0.02846
G1 X100.252 Y132.427 E1.55310
G1 X99.620 Y132.288 E0.02029
G1 X99.010 Y131.973 E0.02154
G1 X98.358 Y131.357 E0.02810
G1 X98.028 Y130.855 E0.01885
G1 X97.772 Y129.985 E0.02843
