; generated by PrusaSlicer 2.1.0-beta3+linux64 on 2020-01-06 at 11:25:57

; 

; external perimeters extrusion width = 0.45mm
; perimeters extrusion width = 0.45mm
; infill extrusion width = 0.45mm
; solid infill extrusion width = 0.45mm
; top infill extrusion width = 0.40mm
; first layer extrusion width = 0.42mm

M73 P0 R48
M73 Q0 S48
M201 X1000 Y1000 Z1000 E5000 ; sets maximum accelerations, mm/sec^2
M203 X200 Y200 Z12 E120 ; sets maximum feedrates, mm/sec
M204 P1250 R1250 T1250 ; sets acceleration (P, T) and retract acceleration (R), mm/sec^2
M205 X8.00 Y8.00 Z0.40 E1.50 ; sets the jerk limits, mm/sec
M205 S0 T0 ; sets the minimum extruding and travel feed rate, mm/sec
M107
M862.3 P "MK3" ; printer model check
M862.1 P0.4 ; nozzle diameter check
M115 U3.8.0 ; tell printer latest fw version
G90 ; use absolute coordinates
M83 ; extruder relative mode
M104 S240 ; set extruder temp
M140 S85 ; set bed temp
M190 S85 ; wait for bed temp
M109 S240 ; wait for extruder temp
G28 W ; home all without mesh bed level
G80 ; mesh bed leveling
G1 Y-3.0 F1000.0 ; go outside print area
G92 E0.0
G1 X60.0 E9.0 F1000.0 ; intro line
M73 Q0 S48
M73 P0 R48
G1 X100.0 E12.5 F1000.0 ; intro line
G92 E0.0
M221 S95
G21 ; set units to millimeters
G90 ; use absolute coordinates
M83 ; use relative distances for extrusion
M900 K45 ; Filament gcode
;BEFORE_LAYER_CHANGE
G92 E0.0
;0.2


G1 E-1.40000 F2100.00000
G1 Z0.200 F10800.000
;AFTER_LAYER_CHANGE
;0.2
G1 Z0.400
G1 X99.711 Y77.199
G1 Z0.200
G1 E1.40000 F2100.00000
M204 S1000
G1 F1200
G1 X100.569 Y77.011 E0.02754
G1 X149.404 Y77.011 E1.53119
G1 X150.223 Y77.171 E0.02620
G1 X150.926 Y77.630 E0.02631
G1 X151.403 Y78.316 E0.02620
G1 X151.588 Y79.135 E0.02631
G1 X151.588 Y129.625 E1.58308
G1 X151.432 Y130.412 E0.02518
G1 X151.004 Y131.088 E0.02507
G1 X150.276 Y131.605 E0.02799
G1 X149.406 Y131.788 E0.02788
G1 X100.574 Y131.787 E1.53110
G1 X99.789 Y131.632 E0.02507
G1 X99.111 Y131.203 E0.02518
G1 X98.596 Y130.478 E0.02788
G1 X98.411 Y129.604 E0.02799
G1 X98.412 Y79.173 E1.58121
G1 X98.568 Y78.386 E0.02518
G1 X98.996 Y77.710 E0.02507
G1 X99.662 Y77.234 E0.02566
G1 F8640
G1 X100.569 Y77.011 E-0.21565
G1 X105.395 Y77.011 E-1.11435
G1 E-0.07000 F2100.00000
G1 Z0.400 F10800.000
G1 X123.742 Y121.724
G1 Z0.200
G1 E1.40000 F2100.00000
G1 F1200
G1 X131.249 Y121.724 E0.23537
G1 X131.668 Y121.780 E0.01325
G1 X132.093 Y121.960 E0.01449
G1 X132.457 Y122.245 E0.01449
G1 X132.735 Y122.614 E0.01449
G1 X132.909 Y123.043 E0.01449
G1 X132.968 Y123.501 E0.01449
G1 X132.909 Y123.959 E0.01449
G1 X132.735 Y124.388 E0.01449
G1 X132.457 Y124.757 E0.01449
G1 X132.093 Y125.042 E0.01449
G1 X131.668 Y125.222 E0.01449
G1 X131.249 Y125.278 E0.01325
G1 X123.742 Y125.278 E0.23537
G1 X123.742 Y121.784 E0.10956
G1 X124.119 Y122.101 F10800.000
G1 F1200
G1 X131.224 Y122.101 E0.22276
G1 X131.567 Y122.147 E0.01087
G1 X131.900 Y122.288 E0.01133
G1 X132.186 Y122.511 E0.01136
G1 X132.404 Y122.802 E0.01139
G1 X132.541 Y123.139 E0.01142
G1 X132.588 Y123.501 E0.01144
G1 X132.541 Y123.863 E0.01144
G1 X132.404 Y124.200 E0.01142
G1 X132.186 Y124.491 E0.01139
G1 X131.900 Y124.714 E0.01136
G1 X131.567 Y124.855 E0.01133
G1 X131.224 Y124.901 E0.01087
G1 X124.119 Y124.901 E0.22276
G1 X124.119 Y122.161 E0.08591
G1 X123.964 Y121.732 F10800.000
G1 F8640
G1 X129.879 Y122.112 E-1.33000
G1 E-0.07000 F2100.00000
G1 Z0.400 F10800.000
G1 X123.737 Y117.345
G1 Z0.200
G1 E1.40000 F2100.00000
G1 F1200
G1 X128.266 Y117.345 E0.14201
G1 X128.685 Y117.401 E0.01325
G1 X129.110 Y117.581 E0.01449
G1 X129.474 Y117.866 E0.01449
G1 X129.752 Y118.236 E0.01449
G1 X129.926 Y118.664 E0.01449
G1 X129.985 Y119.122 E0.01449
G1 X129.926 Y119.581 E0.01449
G1 X129.752 Y120.009 E0.01449
G1 X129.474 Y120.378 E0.01449
G1 X129.110 Y120.663 E0.01449
G1 X128.685 Y120.843 E0.01449
G1 X128.266 Y120.899 E0.01325
G1 X123.737 Y120.899 E0.14201
G1 X123.737 Y117.405 E0.10956
G1 X124.114 Y117.722 F10800.000
G1 F1200
G1 X128.241 Y117.722 E0.12939
G1 X128.584 Y117.768 E0.01087
G1 X128.917 Y117.909 E0.01133
G1 X129.202 Y118.133 E0.01136
G1 X129.421 Y118.423 E0.01139
G1 X129.558 Y118.760 E0.01142
G1 X129.605 Y119.122 E0.01144
G1 X129.558 Y119.484 E0.01144
G1 X129.421 Y119.822 E0.01142
G1 X129.202 Y120.112 E0.01139
G1 X128.917 Y120.335 E0.01136
G1 X128.584 Y120.476 E0.01133
G1 X128.241 Y120.522 E0.01087
G1 X124.114 Y120.522 E0.12939
G1 X124.114 Y117.782 E0.08591
G1 X123.986 Y117.343 F10800.000
G1 F8640
G1 X128.241 Y117.722 E-0.95299
G1 X128.584 Y117.768 E-0.08006
G1 X128.917 Y117.909 E-0.08345
G1 X129.202 Y118.133 E-0.08366
G1 X129.421 Y118.423 E-0.08390
G1 X129.496 Y118.607 E-0.04594
G1 E-0.07000 F2100.00000
G1 Z0.400 F10800.000
G1 X123.743 Y112.856
G1 Z0.200
G1 E1.40000 F2100.00000
G1 F1200
G1 X126.060 Y112.856 E0.07266
G1 X126.479 Y112.912 E0.01325
G1 X126.904 Y113.092 E0.01449
G1 X127.268 Y113.377 E0.01449
G1 X127.546 Y113.746 E0.01449
G1 X127.720 Y114.175 E0.01449
G1 X127.779 Y114.633 E0.01449
G1 X127.720 Y115.091 E0.01449
G1 X127.544 Y115.524 E0.01465
G1 X127.247 Y115.906 E0.01516
G1 X126.904 Y116.174 E0.01364
G1 X126.479 Y116.354 E0.01449
G1 X126.060 Y116.410 E0.01325
G1 X123.743 Y116.410 E0.07266
G1 X123.743 Y112.916 E0.10956
G1 X124.120 Y113.233 F10800.000
G1 F1200
G1 X126.035 Y113.233 E0.06004
G1 X126.379 Y113.279 E0.01087
G1 X126.711 Y113.420 E0.01133
G1 X126.997 Y113.643 E0.01136
G1 X127.215 Y113.934 E0.01139
G1 X127.352 Y114.271 E0.01142
G1 X127.399 Y114.633 E0.01144
G1 X127.352 Y114.995 E0.01144
G1 X127.214 Y115.334 E0.01148
G1 X126.978 Y115.637 E0.01206
G1 X126.711 Y115.846 E0.01062
G1 X126.379 Y115.987 E0.01133
G1 X126.035 Y116.033 E0.01087
G1 X124.120 Y116.033 E0.06004
G1 X124.120 Y113.293 E0.08591
G1 X124.040 Y112.841 F10800.000
G1 X123.376 Y112.853
G1 F1200
G1 X123.376 Y116.408 E0.11144
G1 X121.058 Y116.408 E0.07266
G1 X120.640 Y116.351 E0.01325
G1 X120.214 Y116.171 E0.01449
G1 X119.850 Y115.886 E0.01449
G1 X119.572 Y115.517 E0.01449
G1 X119.399 Y115.089 E0.01449
G1 X119.339 Y114.630 E0.01449
G1 X119.399 Y114.172 E0.01449
G1 X119.572 Y113.744 E0.01449
G1 X119.850 Y113.374 E0.01449
G1 X120.214 Y113.089 E0.01449
G1 X120.640 Y112.910 E0.01449
G1 X121.058 Y112.853 E0.01325
G1 X123.316 Y112.853 E0.07078
G1 X122.999 Y113.230 F10800.000
G1 F1200
G1 X122.999 Y116.030 E0.08779
G1 X121.084 Y116.030 E0.06004
G1 X120.740 Y115.984 E0.01087
G1 X120.407 Y115.844 E0.01133
G1 X120.122 Y115.620 E0.01136
G1 X119.903 Y115.330 E0.01139
G1 X119.766 Y114.992 E0.01142
G1 X119.720 Y114.630 E0.01144
G1 X119.766 Y114.269 E0.01144
G1 X119.903 Y113.931 E0.01142
G1 X120.122 Y113.641 E0.01139
G1 X120.407 Y113.417 E0.01136
G1 X120.740 Y113.277 E0.01133
G1 X121.084 Y113.230 E0.01087
G1 X122.939 Y113.230 E0.05816
G1 X123.399 Y113.228 F10800.000
G1 F8640
G1 X122.999 Y116.030 E-0.64667
G1 X121.084 Y116.030 E-0.44219
G1 X120.740 Y115.984 E-0.08006
G1 X120.407 Y115.844 E-0.08345
G1 X120.142 Y115.636 E-0.07763
G1 E-0.07000 F2100.00000
G1 Z0.400 F10800.000
G1 X123.382 Y117.343
G1 Z0.200
G1 E1.40000 F2100.00000
G1 F1200
G1 X123.382 Y120.897 E0.11144
G1 X118.853 Y120.897 E0.14201
G1 X118.434 Y120.841 E0.01325
G1 X118.008 Y120.661 E0.01449
G1 X117.644 Y120.376 E0.01449
G1 X117.367 Y120.006 E0.01449
G1 X117.193 Y119.578 E0.01449
G1 X117.134 Y119.120 E0.01449
G1 X117.193 Y118.661 E0.01449
G1 X117.367 Y118.233 E0.01449
G1 X117.644 Y117.864 E0.01449
G1 X117.987 Y117.595 E0.01364
G1 X118.429 Y117.400 E0.01515
G1 X118.853 Y117.343 E0.01341
G1 X123.322 Y117.343 E0.14012
G1 X123.005 Y117.720 F10800.000
G1 F1200
G1 X123.005 Y120.520 E0.08779
G1 X118.878 Y120.520 E0.12939
G1 X118.534 Y120.474 E0.01087
G1 X118.201 Y120.333 E0.01133
G1 X117.916 Y120.109 E0.01136
G1 X117.698 Y119.819 E0.01139
G1 X117.561 Y119.482 E0.01142
G1 X117.514 Y119.120 E0.01144
G1 X117.561 Y118.758 E0.01144
G1 X117.698 Y118.420 E0.01142
G1 X117.916 Y118.130 E0.01139
G1 X118.183 Y117.921 E0.01061
G1 X118.532 Y117.766 E0.01200
G1 X118.878 Y117.720 E0.01093
G1 X122.945 Y117.720 E0.12751
G1 X123.405 Y117.718 F10800.000
G1 F8640
G1 X123.005 Y120.520 E-0.64667
G1 X120.045 Y120.520 E-0.68333
G1 E-0.07000 F2100.00000
G1 Z0.400 F10800.000
G1 X123.376 Y121.721
G1 Z0.200
G1 E1.40000 F2100.00000
G1 F1200
G1 X123.376 Y125.276 E0.11144
G1 X115.870 Y125.276 E0.23537
G1 X115.451 Y125.219 E0.01325
G1 X115.025 Y125.039 E0.01449
G1 X114.661 Y124.755 E0.01449
G1 X114.384 Y124.385 E0.01449
G1 X114.210 Y123.957 E0.01449
G1 X114.151 Y123.498 E0.01449
G1 X114.210 Y123.040 E0.01449
G1 X114.384 Y122.612 E0.01449
G1 X114.661 Y122.242 E0.01449
G1 X115.025 Y121.958 E0.01449
G1 X115.451 Y121.778 E0.01449
G1 X115.870 Y121.721 E0.01325
G1 X123.316 Y121.721 E0.23349
G1 X122.999 Y122.098 F10800.000
G1 F1200
G1 X122.999 Y124.898 E0.08779
G1 X115.895 Y124.898 E0.22276
G1 X115.551 Y124.852 E0.01087
G1 X115.218 Y124.712 E0.01133
G1 X114.933 Y124.488 E0.01136
G1 X114.715 Y124.198 E0.01139
G1 X114.578 Y123.860 E0.01142
G1 X114.531 Y123.498 E0.01144
G1 X114.578 Y123.137 E0.01144
G1 X114.715 Y122.799 E0.01142
G1 X114.933 Y122.509 E0.01139
G1 X115.218 Y122.285 E0.01136
G1 X115.551 Y122.145 E0.01133
G1 X115.895 Y122.098 E0.01087
G1 X122.939 Y122.098 E0.22088
G1 X123.399 Y122.098 F10800.000
G1 F8640
G1 X122.999 Y124.898 E-0.64667
G1 X120.040 Y124.898 E-0.68333
G1 E-0.07000 F2100.00000
G1 Z0.400 F10800.000
G1 X101.187 Y129.012
G1 Z0.200
G1 E1.40000 F2100.00000
G1 F1200
G1 X101.187 Y109.986 E0.59654
G1 X148.813 Y109.986 E1.49328
G1 X148.813 Y129.012 E0.59654
G1 X101.247 Y129.012 E1.49139
G1 X100.810 Y129.389 F10800.000
G1 F1200
G1 X100.810 Y109.609 E0.62019
G1 X149.190 Y109.609 E1.51692
G1 X149.190 Y129.389 E0.62019
G1 X100.870 Y129.389 E1.51504
G1 X100.964 Y129.020 F10800.000
G1 F8640
G1 X100.853 Y123.629 E-1.33000
G1 E-0.07000 F2100.00000
G1 Z0.400 F10800.000
G1 X101.300 Y128.135
G1 Z0.200
G1 E1.40000 F2100.00000
G1 F1200
G1 X101.895 Y128.729 E0.02642
G1 X102.429 Y128.729 E0.01680
G1 X101.470 Y127.770 E0.04263
G1 X101.470 Y127.236 E0.01680
G1 X102.963 Y128.729 E0.06638
G1 X103.498 Y128.729 E0.01680
G1 X101.470 Y126.701 E0.09013
G1 X101.470 Y126.167 E0.01680
G1 X104.032 Y128.729 E0.11389
G1 X104.567 Y128.729 E0.01680
G1 X101.470 Y125.632 E0.13764
G1 X101.470 Y125.098 E0.01680
G1 X105.101 Y128.729 E0.16139
G1 X105.636 Y128.729 E0.01680
G1 X101.470 Y124.563 E0.18514
G1 X101.470 Y124.029 E0.01680
G1 X106.170 Y128.729 E0.20890
G1 X106.705 Y128.729 E0.01680
G1 X101.470 Y123.494 E0.23265
G1 X101.470 Y122.960 E0.01680
G1 X107.239 Y128.729 E0.25640
G1 X107.774 Y128.729 E0.01680
G1 X101.470 Y122.425 E0.28015
G1 X101.470 Y121.891 E0.01680
G1 X108.308 Y128.729 E0.30391
G1 X108.843 Y128.729 E0.01680
G1 X101.470 Y121.356 E0.32766
G1 X101.470 Y120.822 E0.01680
G1 X109.377 Y128.729 E0.35141
G1 X109.912 Y128.729 E0.01680
G1 X101.470 Y120.287 E0.37517
G1 X101.470 Y119.753 E0.01680
G1 X110.446 Y128.729 E0.39892
G1 X110.981 Y128.729 E0.01680
G1 X101.470 Y119.218 E0.42267
G1 X101.470 Y118.684 E0.01680
G1 X111.515 Y128.729 E0.44642
G1 X112.050 Y128.729 E0.01680
G1 X101.470 Y118.150 E0.47018
G1 X101.470 Y117.615 E0.01680
G1 X112.584 Y128.729 E0.49393
G1 X113.118 Y128.729 E0.01680
G1 X101.470 Y117.081 E0.51768
G1 X101.470 Y116.546 E0.01680
G1 X113.653 Y128.729 E0.54144
G1 X114.187 Y128.729 E0.01680
G1 X101.470 Y116.012 E0.56519
G1 X101.470 Y115.477 E0.01680
G1 X114.722 Y128.729 E0.58894
G1 X115.256 Y128.729 E0.01680
G1 X101.470 Y114.943 E0.61269
G1 X101.470 Y114.408 E0.01680
G1 X115.791 Y128.729 E0.63645
G1 X116.325 Y128.729 E0.01680
G1 X101.470 Y113.874 E0.66020
G1 X101.470 Y113.339 E0.01680
G1 X116.860 Y128.729 E0.68395
G1 X117.394 Y128.729 E0.01680
G1 X101.470 Y112.805 E0.70770
M73 Q2 S47
M73 P2 R47
G1 X101.470 Y112.270 E0.01680
G1 X118.098 Y128.899 E0.73900
G1 F8640
G1 X114.025 Y124.826 E-1.33000
G1 E-0.07000 F2100.00000
G1 Z0.400 F10800.000
G1 X119.292 Y115.127
G1 Z0.200
G1 E1.40000 F2100.00000
G1 F1200
G1 X114.434 Y110.269 E0.21592
G1 X114.968 Y110.269 E0.01680
G1 X119.086 Y114.387 E0.18299
G1 X119.123 Y114.100 E0.00909
G1 X119.184 Y113.950 E0.00508
G1 X115.503 Y110.269 E0.16359
G1 X116.037 Y110.269 E0.01680
G1 X119.344 Y113.576 E0.14699
G1 X119.574 Y113.271 E0.01199
G1 X116.572 Y110.269 E0.13343
G1 X117.106 Y110.269 E0.01680
G1 X119.851 Y113.014 E0.12201
G1 X120.069 Y112.844 E0.00870
G1 X120.172 Y112.800 E0.00350
G1 X117.641 Y110.269 E0.11250
G1 X118.175 Y110.269 E0.01680
G1 X120.548 Y112.641 E0.10544
G1 X121.014 Y112.574 E0.01482
G1 X118.709 Y110.269 E0.10244
G1 X119.244 Y110.269 E0.01680
G1 X121.546 Y112.571 E0.10229
G1 X122.080 Y112.571 E0.01680
G1 X119.778 Y110.269 E0.10229
G1 X120.313 Y110.269 E0.01680
G1 X122.615 Y112.571 E0.10229
G1 X123.149 Y112.571 E0.01680
G1 X120.847 Y110.269 E0.10229
G1 X121.382 Y110.269 E0.01680
G1 X123.686 Y112.573 E0.10240
G1 X124.221 Y112.573 E0.01680
G1 X121.916 Y110.269 E0.10240
G1 X122.451 Y110.269 E0.01680
G1 X124.755 Y112.573 E0.10240
G1 X125.289 Y112.573 E0.01680
G1 X122.985 Y110.269 E0.10240
G1 X123.520 Y110.269 E0.01680
G1 X125.824 Y112.573 E0.10240
G1 X126.079 Y112.573 E0.00802
G1 X126.402 Y112.616 E0.01023
G1 X124.054 Y110.269 E0.10433
G1 X124.589 Y110.269 E0.01680
G1 X143.049 Y128.729 E0.82040
G1 X143.583 Y128.729 E0.01680
G1 X125.123 Y110.269 E0.82040
G1 X125.658 Y110.269 E0.01680
G1 X144.118 Y128.729 E0.82040
G1 X144.652 Y128.729 E0.01680
G1 X126.192 Y110.269 E0.82040
G1 X126.727 Y110.269 E0.01680
G1 X145.187 Y128.729 E0.82040
G1 X145.721 Y128.729 E0.01680
G1 X127.261 Y110.269 E0.82040
G1 X127.795 Y110.269 E0.01680
G1 X146.256 Y128.729 E0.82040
G1 X146.790 Y128.729 E0.01680
G1 X128.330 Y110.269 E0.82040
G1 X128.864 Y110.269 E0.01680
G1 X147.325 Y128.729 E0.82040
G1 X147.859 Y128.729 E0.01680
G1 X129.399 Y110.269 E0.82040
G1 X129.933 Y110.269 E0.01680
G1 X148.394 Y128.729 E0.82040
G1 X148.530 Y128.729 E0.00429
G1 X148.530 Y128.331 E0.01251
G1 X130.468 Y110.269 E0.80272
G1 X131.002 Y110.269 E0.01680
G1 X148.530 Y127.797 E0.77896
G1 X148.530 Y127.262 E0.01680
G1 X131.537 Y110.269 E0.75521
G1 X132.071 Y110.269 E0.01680
G1 X148.530 Y126.728 E0.73146
G1 X148.530 Y126.193 E0.01680
G1 X132.606 Y110.269 E0.70771
G1 X133.140 Y110.269 E0.01680
G1 X148.530 Y125.659 E0.68395
G1 X148.530 Y125.124 E0.01680
G1 X133.675 Y110.269 E0.66020
G1 X134.209 Y110.269 E0.01680
G1 X148.530 Y124.590 E0.63645
G1 X148.530 Y124.055 E0.01680
G1 X134.744 Y110.269 E0.61269
G1 X135.278 Y110.269 E0.01680
G1 X148.530 Y123.521 E0.58894
G1 X148.530 Y122.986 E0.01680
G1 X135.813 Y110.269 E0.56519
G1 X136.347 Y110.269 E0.01680
G1 X148.530 Y122.452 E0.54144
G1 X148.530 Y121.918 E0.01680
G1 X136.882 Y110.269 E0.51768
G1 X137.416 Y110.269 E0.01680
G1 X148.530 Y121.383 E0.49393
G1 X148.530 Y120.849 E0.01680
G1 X137.950 Y110.269 E0.47018
G1 X138.485 Y110.269 E0.01680
G1 X148.530 Y120.314 E0.44642
G1 X148.530 Y119.780 E0.01680
G1 X139.019 Y110.269 E0.42267
G1 X139.554 Y110.269 E0.01680
G1 X148.530 Y119.245 E0.39892
G1 X148.530 Y118.711 E0.01680
G1 X140.088 Y110.269 E0.37517
G1 X140.623 Y110.269 E0.01680
G1 X148.530 Y118.176 E0.35141
G1 X148.530 Y117.642 E0.01680
G1 X141.157 Y110.269 E0.32766
G1 X141.692 Y110.269 E0.01680
G1 X148.530 Y117.107 E0.30391
G1 X148.530 Y116.573 E0.01680
G1 X142.226 Y110.269 E0.28015
G1 X142.761 Y110.269 E0.01680
G1 X148.530 Y116.038 E0.25640
G1 X148.530 Y115.504 E0.01680
G1 X143.295 Y110.269 E0.23265
G1 X143.830 Y110.269 E0.01680
G1 X148.530 Y114.969 E0.20890
G1 X148.530 Y114.435 E0.01680
G1 X144.364 Y110.269 E0.18514
G1 X144.899 Y110.269 E0.01680
G1 X148.530 Y113.900 E0.16139
G1 X148.530 Y113.366 E0.01680
G1 X145.433 Y110.269 E0.13764
G1 X145.968 Y110.269 E0.01680
G1 X148.530 Y112.832 E0.11389
G1 X148.530 Y112.297 E0.01680
G1 X146.502 Y110.269 E0.09013
G1 X147.036 Y110.269 E0.01680
G1 X148.530 Y111.763 E0.06638
G1 X148.530 Y111.228 E0.01680
G1 X147.571 Y110.269 E0.04263
G1 X148.105 Y110.269 E0.01680
G1 X148.700 Y110.863 E0.02642
G1 F8640
G1 X148.105 Y110.269 E-0.19409
G1 X147.571 Y110.269 E-0.12341
G1 X148.530 Y111.228 E-0.31321
G1 X148.530 Y111.763 E-0.12341
G1 X147.036 Y110.269 E-0.48774
G1 X146.655 Y110.269 E-0.08812
G1 E-0.07000 F2100.00000
G1 Z0.400 F10800.000
G1 X142.684 Y128.899
G1 Z0.200
G1 E1.40000 F2100.00000
G1 F1200
G1 X128.012 Y114.226 E0.65206
